src/svg/28/money_request_outline_28.svg

<?xml version="1.0" encoding="UTF-8"?>
<svg width="28px" height="28px" viewBox="0 0 28 28" version="1.1" xmlns="http://www.w3.org/2000/svg" xmlns:xlink="http://www.w3.org/1999/xlink">
    <!-- Generator: Sketch 63.1 (92452) - https://sketch.com -->
    <title>money_request_outline_28</title>
    <desc>Created with Sketch.</desc>
    <g id="Page-1" stroke="none" stroke-width="1" fill="none" fill-rule="evenodd">
        <g id="money_request_outline_28">
            <polygon points="0 0 28 0 28 28 0 28"></polygon>
            <path d="M19.2928932,19.2928932 C19.6834175,18.9023689 20.3165825,18.9023689 20.7071068,19.2928932 C21.0976311,19.6834175 21.0976311,20.3165825 20.7071068,20.7071068 L20.7071068,20.7071068 L19.413,22 L27,22 C27.5128358,22 27.9355072,22.3860402 27.9932723,22.8833789 L28,23 C28,23.5522847 27.5522847,24 27,24 L27,24 L19.415,24 L20.7071068,25.2928932 C21.0675907,25.6533772 21.0953203,26.2206082 20.7902954,26.6128994 L20.7071068,26.7071068 C20.3165825,27.0976311 19.6834175,27.0976311 19.2928932,26.7071068 L19.2928932,26.7071068 L16.2928932,23.7071068 C15.9023689,23.3165825 15.9023689,22.6834175 16.2928932,22.2928932 L16.2928932,22.2928932 Z M24,12.8458278 C24,11.7775676 23.9265592,11.39726 23.7174877,11.0063303 C23.5492269,10.6917099 23.3082901,10.4507731 22.9936697,10.2825123 C22.60274,10.0734408 22.2224324,10 21.1541722,10 L4,10 L4,19.1541722 C4,20.2224324 4.07344079,20.60274 4.28251225,20.9936697 C4.45077309,21.3082901 4.69170989,21.5492269 5.0063303,21.7174877 C5.39725995,21.9265592 5.77756757,22 6.8458278,22 L13,22 L13,22 C13.5522847,22 14,22.4477153 14,23 C14,23.5522847 13.5522847,24 13,24 L6.8458278,24 C5.47563815,24 4.78341544,23.8663256 4.06313259,23.4811141 C3.39997522,23.1264537 2.8735463,22.6000248 2.51888586,21.9368674 C2.13367437,21.2165846 2,20.5243618 2,19.1541722 L2,8 L2.002,8 L2.00211335,7.9452984 C2.01920744,6.94497863 2.14223692,6.38674261 2.45210268,5.80734401 C2.76318635,5.22566813 3.22566813,4.76318635 3.80734401,4.45210268 C4.43502582,4.11641478 5.03787101,4 6.2048565,4 L17.7951435,4 C18.962129,4 19.5649742,4.11641478 20.192656,4.45210268 C20.7743319,4.76318635 21.2368137,5.22566813 21.5478973,5.80734401 C21.8654399,6.40109708 21.9867739,6.97262599 21.9989633,8.02046757 C22.8440347,8.0747324 23.382129,8.22220852 23.9368674,8.51888586 C24.6000248,8.8735463 25.1264537,9.39997522 25.4811141,10.0631326 C25.8663256,10.7834154 26,11.4756382 26,12.8458278 L26,19 L26,19 C26,19.5522847 25.5522847,20 25,20 C24.4477153,20 24,19.5522847 24,19 L24,12.8458278 Z M20,15 C20.5522847,15 21,15.4477153 21,16 C21,16.5522847 20.5522847,17 20,17 L18,17 C17.4477153,17 17,16.5522847 17,16 C17,15.4477153 17.4477153,15 18,15 L20,15 Z M17.7951435,6 L6.2048565,6 C5.33980043,6 5.04887034,6.05618119 4.75054173,6.21572908 C4.5174028,6.34041314 4.34041314,6.5174028 4.21572908,6.75054173 C4.06949177,7.02398173 4.01009347,7.29120619 4.00120047,8 L19.9987995,8 C19.9899065,7.29120619 19.9305082,7.02398173 19.7842709,6.75054173 C19.6595869,6.5174028 19.4825972,6.34041314 19.2494583,6.21572908 C18.9511297,6.05618119 18.6601996,6 17.7951435,6 Z" id="↳-Icon-Color" fill="currentColor" fill-rule="nonzero"></path>
        </g>
    </g>
</svg>

<svg width="28" height="28" xmlns="http://www.w3.org/2000/svg"><g fill="none" fill-rule="evenodd"><path d="M0 0L28 0 28 28 0 28z"/><path d="M19.293 19.293a1 1 0 0 1 1.414 1.414L19.413 22H27a1 1 0 0 1 .993.883L28 23a1 1 0 0 1-1 1h-7.585l1.292 1.293a1 1 0 0 1 .083 1.32l-.083.094a1 1 0 0 1-1.414 0l-3-3a1 1 0 0 1 0-1.414zM24 12.846c0-1.068-.073-1.449-.283-1.84a1.726 1.726 0 0 0-.723-.723c-.391-.21-.772-.283-1.84-.283H4v9.154c0 1.068.073 1.449.283 1.84.168.314.409.555.723.723.391.21.772.283 1.84.283H13a1 1 0 0 1 0 2H6.846c-1.37 0-2.063-.134-2.783-.519a3.726 3.726 0 0 1-1.544-1.544C2.134 21.217 2 20.524 2 19.154V8h.002v-.055c.017-1 .14-1.558.45-2.138a3.271 3.271 0 0 1 1.355-1.355C4.435 4.116 5.037 4 6.205 4h11.59c1.167 0 1.77.116 2.398.452a3.271 3.271 0 0 1 1.355 1.355c.317.594.439 1.166.451 2.213.845.055 1.383.202 1.938.499.663.355 1.19.881 1.544 1.544.385.72.519 1.413.519 2.783V19a1 1 0 0 1-2 0v-6.154zM20 15a1 1 0 0 1 0 2h-2a1 1 0 0 1 0-2h2zm-2.205-9H6.205c-.865 0-1.156.056-1.454.216-.234.124-.41.301-.535.535C4.069 7.024 4.01 7.29 4 8H20c-.01-.709-.068-.976-.215-1.25a1.272 1.272 0 0 0-.535-.534C18.951 6.056 18.66 6 17.795 6z" fill="currentColor" fill-rule="nonzero"/></g></svg>
